X:586
T: Stiewel mu sterben! (284), S. 599
N: T0474
O: Luxemburg
S: Singendes Volk, Esch-Alzette, 1937 posth.]
N: Godbringen, fff Linden, 1903
R: ???]
M: 6/8
L: 1/16
K: C
 | E2E2E2E2G2G2 | G2F2F2A2G2G2 |
E2E2E2E2G2G2 | G2F2F2E4
G2 | c2B2A2A2G2G2 | c2B2AAA2G2G2 |
E2E2E2E2G2G2 | G2F2F2E2z4

@@@ Tune index: 8640
